X: 1
T: Bristol Fair. A Dance
R: jig
Z: 2014 John Chambers <jc:trillian.mit.edu>
S: The Gentleman's Magazine v.23, September 1753, p.483
N: Dots added to last note in each strain, to fix the rhythm.
M: 6/8
L: 1/8
K: G
% - - - - - - - - - - - - - - - - - - - - - - - - - - - - -
|:\
GAB TB3 | ABc Tc3 | (B/c/dB) c2B | ABG FED |\
GAB TB3 | ABc Tc2e | dcB AGF | G3 G,3 :|
|:\
GBd gdB | gdB gdB | A^ce ae^c | ae^c ae^c |\
GBd gdB | gdB gdB | (A/B/cB) AGF | G3 G,3 :|
% - - - - - - - - - - Dance description - - - - - - - - - -
%%begintext align
%%   The 1st couple foot it to the 2d woman, hands three round .|, foot it to the 2d man,
%% hands four round :|, lead down 2 coup. and cast up one coop. .|, and right and left :|.
%%endtext

%%sep 1 1 500
%%sep 1 1 500
